svg/fluentui-system-icons/ic_fluent_text_position_square_left_20_regular.svg

<svg width="20" height="20" viewBox="0 0 20 20" fill="none" xmlns="http://www.w3.org/2000/svg">
<path d="M3.5 3C3.22386 3 3 3.22386 3 3.5C3 3.77614 3.22386 4 3.5 4H16.5C16.7761 4 17 3.77614 17 3.5C17 3.22386 16.7761 3 16.5 3H3.5ZM12 6C11.7239 6 11.5 6.22386 11.5 6.5C11.5 6.77614 11.7239 7 12 7H16.5C16.7761 7 17 6.77614 17 6.5C17 6.22386 16.7761 6 16.5 6H12ZM11.5 9.5C11.5 9.22386 11.7239 9 12 9H16.5C16.7761 9 17 9.22386 17 9.5C17 9.77614 16.7761 10 16.5 10H12C11.7239 10 11.5 9.77614 11.5 9.5ZM12 12C11.7239 12 11.5 12.2239 11.5 12.5C11.5 12.7761 11.7239 13 12 13H16.5C16.7761 13 17 12.7761 17 12.5C17 12.2239 16.7761 12 16.5 12H12ZM3 15.5C3 15.2239 3.22386 15 3.5 15H16.5C16.7761 15 17 15.2239 17 15.5C17 15.7761 16.7761 16 16.5 16H3.5C3.22386 16 3 15.7761 3 15.5ZM4 8.5C4 7.11929 5.11929 6 6.5 6C7.88071 6 9 7.11929 9 8.5V13.5C9 13.7761 9.22386 14 9.5 14C9.77614 14 10 13.7761 10 13.5V8.5C10 6.567 8.433 5 6.5 5C4.567 5 3 6.567 3 8.5V13.5C3 13.7761 3.22386 14 3.5 14C3.77614 14 4 13.7761 4 13.5V8.5Z" fill="#212121"/>
</svg>

<svg xmlns="http://www.w3.org/2000/svg" width="20" height="20"><path d="M3.5 3a.5.5 0 0 0 0 1h13a.5.5 0 0 0 0-1h-13ZM12 6a.5.5 0 0 0 0 1h4.5a.5.5 0 0 0 0-1H12Zm-.5 3.5A.5.5 0 0 1 12 9h4.5a.5.5 0 0 1 0 1H12a.5.5 0 0 1-.5-.5ZM12 12a.5.5 0 0 0 0 1h4.5a.5.5 0 0 0 0-1H12Zm-9 3.5a.5.5 0 0 1 .5-.5h13a.5.5 0 0 1 0 1h-13a.5.5 0 0 1-.5-.5Zm1-7a2.5 2.5 0 0 1 5 0v5a.5.5 0 0 0 1 0v-5a3.5 3.5 0 1 0-7 0v5a.5.5 0 0 0 1 0v-5Z"/></svg>
